images/VIDT.svg

<svg height="250" viewBox="0 0 250 250" width="250" xmlns="http://www.w3.org/2000/svg"><path d="m234.613281 123.007812c0 60.539063-49.074219 109.613282-109.613281 109.613282s-109.613281-49.074219-109.613281-109.613282c0-60.535156 49.074219-109.613281 109.613281-109.613281s109.613281 49.078125 109.613281 109.613281zm0 0" fill="#fff"/><g fill="#00c3d1"><path d="m120.167969.175781c-26.992188 1.074219-52.359375 10.558594-73.402344 27.441407-3.605469 2.890624-6.332031 5.359374-10.066406 9.082031-4.65625 4.667969-7.914063 8.410156-11.640625 13.367187-20.535156 27.332032-28.882813 61.675782-23.257813 95.601563 3.675781 22.171875 13.40625 43.097656 28.03125 60.25 4.101563 4.808593 9.441407 10.148437 14.25 14.25 28 23.867187 65.042969 34.089843 101.585938 28.03125 22.171875-3.675781 43.097656-13.40625 60.25-28.03125 4.808593-4.101563 10.148437-9.441407 14.25-14.25 23.808593-27.925781 34.046875-64.902344 28.082031-101.335938-3.660156-22.273437-13.410156-43.28125-28.082031-60.5-4.101563-4.808593-9.441407-10.148437-14.25-14.25-22.652344-19.308593-51.5-29.8554685-81.292969-29.730469-1.558594 0-3.566406.039063-4.457031.074219zm-40.882813 34.28125c4.140625.542969 7.738282 3.175781 9.589844 7 .476562.992188.691406 1.59375.976562 2.75l.191407.75.039062 65.292969.042969 65.292969.183594.289062c.292968.46875.824218.710938 1.351562.617188.296875-.058594 24.171875-13.675781 24.488282-13.972657.109374-.101562.242187-.261718.292968-.351562.074219-.125.109375-10.964844.140625-43.832031l.042969-43.667969.183594-.75c.589844-2.484375 1.683594-4.449219 3.441406-6.207031 1.765625-1.777344 3.773438-2.875 6.257812-3.433594 1.160157-.257813 3.792969-.277344 4.910157-.042969 1.605469.351563 3.03125.917969 4.375 1.742188.796875.492187 1.105469.667968 10.75 6.234375 3.441406 1.980469 7.582031 4.375 9.207031 5.316406s4.398438 2.539063 6.167969 3.558594c1.765625 1.015625 4.539062 2.617187 6.164062 3.558593 1.625.941407 5.777344 3.332032 9.210938 5.316407 3.441406 1.980469 8.046875 4.648437 10.25 5.914062 4.824219 2.792969 14.964843 8.644531 22.898437 13.21875 3.199219 1.847657 6.125 3.574219 6.492188 3.839844 2.707031 1.933594 4.558594 5.058594 5.023437 8.441406.625 4.558594-1.375 9.203125-5.105469 11.835938-.652343.457031-5.601562 3.332031-20.976562 12.199219-1.375.792968-5.785156 3.332031-9.792969 5.648437-4.007812 2.316406-11.546875 6.667969-16.75 9.667969-5.199219 3-12.757812 7.367187-16.789062 9.691406-4.035157 2.324219-8.292969 4.785156-9.460938 5.457031-1.164062.675781-6.882812 3.976563-12.707031 7.335938-5.816406 3.355469-16.765625 9.671875-24.332031 14.039062-7.558594 4.367188-15.683594 9.050781-18.042969 10.410157-4.785156 2.765624-5.410156 3.082031-6.792969 3.507812-3.105469.941406-6.441406.625-9.375-.882812-3.339843-1.726563-5.671875-4.816407-6.515625-8.660157l-.191406-.875v-155.414062l.191406-.875c.832032-3.800781 3.160156-6.910157 6.433594-8.617188 2.410156-1.25 4.867188-1.691406 7.535156-1.34375zm0 0"/><path d="m142.25 99.265625c-.273438.144531-.425781.292969-.558594.566406l-.191406.367188v22.84375c0 22.082031.007812 22.839843.160156 23.171875.339844.742187 1.230469.925781 2.023438.417968.242187-.148437.816406-.484374 1.273437-.734374.902344-.488282.875-.472657 8.835938-5.125 18.882812-11.03125 28.007812-16.347657 28.648437-16.671876.859375-.453124 1.058594-.703124 1.058594-1.316406 0-.445312-.191406-.84375-.515625-1.078125-.109375-.074219-.867187-.5-1.691406-.949219-1.316407-.714843-8.675781-4.898437-27.960938-15.882812-9.230469-5.257812-9.78125-5.566406-10.082031-5.675781-.417969-.148438-.582031-.140625-1 .066406zm0 0"/></g></svg>

<!-- Generator: Gravit.io -->
<svg xmlns="http://www.w3.org/2000/svg" xmlns:xlink="http://www.w3.org/1999/xlink" width="250px" height="250px" viewBox="0 0 250 250" version="1.1">
<g id="surface1">
<path style=" stroke:none;fill-rule:nonzero;fill:rgb(100%,100%,100%);fill-opacity:1;" d="M 234.613281 123.007812 C 234.613281 183.546875 185.539062 232.621094 125 232.621094 C 64.460938 232.621094 15.386719 183.546875 15.386719 123.007812 C 15.386719 62.472656 64.460938 13.394531 125 13.394531 C 185.539062 13.394531 234.613281 62.472656 234.613281 123.007812 Z M 234.613281 123.007812 "/>
<path style=" stroke:none;fill-rule:nonzero;fill:rgb(0%,76.47059%,81.960785%);fill-opacity:1;" d="M 120.167969 0.175781 C 93.175781 1.25 67.808594 10.734375 46.765625 27.617188 C 43.160156 30.507812 40.433594 32.976562 36.699219 36.699219 C 32.042969 41.367188 28.785156 45.109375 25.058594 50.066406 C 4.523438 77.398438 -3.824219 111.742188 1.800781 145.667969 C 5.476562 167.839844 15.207031 188.765625 29.832031 205.917969 C 33.933594 210.726562 39.273438 216.066406 44.082031 220.167969 C 72.082031 244.035156 109.125 254.257812 145.667969 248.199219 C 167.839844 244.523438 188.765625 234.792969 205.917969 220.167969 C 210.726562 216.066406 216.066406 210.726562 220.167969 205.917969 C 243.976562 177.992188 254.214844 141.015625 248.25 104.582031 C 244.589844 82.308594 234.839844 61.300781 220.167969 44.082031 C 216.066406 39.273438 210.726562 33.933594 205.917969 29.832031 C 183.265625 10.523438 154.417969 -0.0234375 124.625 0.101562 C 123.066406 0.101562 121.058594 0.140625 120.167969 0.175781 Z M 79.285156 34.457031 C 83.425781 35 87.023438 37.632812 88.875 41.457031 C 89.351562 42.449219 89.566406 43.050781 89.851562 44.207031 L 90.042969 44.957031 L 90.082031 110.25 L 90.125 175.542969 L 90.308594 175.832031 C 90.601562 176.300781 91.132812 176.542969 91.660156 176.449219 C 91.957031 176.390625 115.832031 162.773438 116.148438 162.476562 C 116.257812 162.375 116.390625 162.214844 116.441406 162.125 C 116.515625 162 116.550781 151.160156 116.582031 118.292969 L 116.625 74.625 L 116.808594 73.875 C 117.398438 71.390625 118.492188 69.425781 120.25 67.667969 C 122.015625 65.890625 124.023438 64.792969 126.507812 64.234375 C 127.667969 63.976562 130.300781 63.957031 131.417969 64.191406 C 133.023438 64.542969 134.449219 65.109375 135.792969 65.933594 C 136.589844 66.425781 136.898438 66.601562 146.542969 72.167969 C 149.984375 74.148438 154.125 76.542969 155.75 77.484375 C 157.375 78.425781 160.148438 80.023438 161.917969 81.042969 C 163.683594 82.058594 166.457031 83.660156 168.082031 84.601562 C 169.707031 85.542969 173.859375 87.933594 177.292969 89.917969 C 180.734375 91.898438 185.339844 94.566406 187.542969 95.832031 C 192.367188 98.625 202.507812 104.476562 210.441406 109.050781 C 213.640625 110.898438 216.566406 112.625 216.933594 112.890625 C 219.640625 114.824219 221.492188 117.949219 221.957031 121.332031 C 222.582031 125.890625 220.582031 130.535156 216.851562 133.167969 C 216.199219 133.625 211.25 136.5 195.875 145.367188 C 194.5 146.160156 190.089844 148.699219 186.082031 151.015625 C 182.074219 153.332031 174.535156 157.683594 169.332031 160.683594 C 164.132812 163.683594 156.574219 168.050781 152.542969 170.375 C 148.507812 172.699219 144.25 175.160156 143.082031 175.832031 C 141.917969 176.507812 136.199219 179.808594 130.375 183.167969 C 124.558594 186.523438 113.609375 192.839844 106.042969 197.207031 C 98.484375 201.574219 90.359375 206.257812 88 207.617188 C 83.214844 210.382812 82.589844 210.699219 81.207031 211.125 C 78.101562 212.066406 74.765625 211.75 71.832031 210.242188 C 68.492188 208.515625 66.160156 205.425781 65.316406 201.582031 L 65.125 200.707031 L 65.125 45.292969 L 65.316406 44.417969 C 66.148438 40.617188 68.476562 37.507812 71.75 35.800781 C 74.160156 34.550781 76.617188 34.109375 79.285156 34.457031 Z M 79.285156 34.457031 "/>
<path style=" stroke:none;fill-rule:nonzero;fill:rgb(0%,76.47059%,81.960785%);fill-opacity:1;" d="M 142.25 99.265625 C 141.976562 99.410156 141.824219 99.558594 141.691406 99.832031 L 141.5 100.199219 L 141.5 123.042969 C 141.5 145.125 141.507812 145.882812 141.660156 146.214844 C 142 146.957031 142.890625 147.140625 143.683594 146.632812 C 143.925781 146.484375 144.5 146.148438 144.957031 145.898438 C 145.859375 145.410156 145.832031 145.425781 153.792969 140.773438 C 172.675781 129.742188 181.800781 124.425781 182.441406 124.101562 C 183.300781 123.648438 183.5 123.398438 183.5 122.785156 C 183.5 122.339844 183.308594 121.941406 182.984375 121.707031 C 182.875 121.632812 182.117188 121.207031 181.292969 120.757812 C 179.976562 120.042969 172.617188 115.859375 153.332031 104.875 C 144.101562 99.617188 143.550781 99.308594 143.25 99.199219 C 142.832031 99.050781 142.667969 99.058594 142.25 99.265625 Z M 142.25 99.265625 "/>
</g>
</svg>
